X: 13365
T: Flax In Bloom, The
R: reel
M: 4/4
K: Dmajor
|:D2ED FAA2|gefd edBd|BAFA dfaf|gefd edBd|
D2ED FAA2|gefd edBd|BAFA ABdf|afeg fdd2:|
|:f2df e2ce|dcdA BAFA|DFAD FAdf|gefd edBd|
fAdf eAce|dcdA BAFA|DEFG ABdf|afeg fdd2:|

